qml/icons/sailfishos/profile-mixed-white.svg

<?xml version="1.0" encoding="UTF-8" standalone="no"?>
<!-- Generator: Adobe Illustrator 17.0.1, SVG Export Plug-In . SVG Version: 6.00 Build 0)  -->

<svg
   xmlns:dc="http://purl.org/dc/elements/1.1/"
   xmlns:cc="http://creativecommons.org/ns#"
   xmlns:rdf="http://www.w3.org/1999/02/22-rdf-syntax-ns#"
   xmlns:svg="http://www.w3.org/2000/svg"
   xmlns="http://www.w3.org/2000/svg"
   xmlns:sodipodi="http://sodipodi.sourceforge.net/DTD/sodipodi-0.dtd"
   xmlns:inkscape="http://www.inkscape.org/namespaces/inkscape"
   version="1.1"
   id="Layer_1"
   x="0px"
   y="0px"
   width="64px"
   height="64px"
   viewBox="0 0 64 64"
   style="enable-background:new 0 0 64 64;"
   xml:space="preserve"
   sodipodi:docname="profile_mixed_sfos_white.svg"
   inkscape:export-filename="/home/mo/Dokumente/Pure Maps/missing/profile_offline_sfos_stop.png"
   inkscape:export-xdpi="132"
   inkscape:export-ydpi="132"
   inkscape:version="0.92.4 5da689c313, 2019-01-14"><metadata
   id="metadata21"><rdf:RDF><cc:Work
       rdf:about=""><dc:format>image/svg+xml</dc:format><dc:type
         rdf:resource="http://purl.org/dc/dcmitype/StillImage" /><dc:title></dc:title></cc:Work></rdf:RDF></metadata><defs
   id="defs19">
	
	
	

		
		
	</defs><sodipodi:namedview
   pagecolor="#b7b7b7"
   bordercolor="#666666"
   borderopacity="1"
   objecttolerance="10"
   gridtolerance="10"
   guidetolerance="10"
   inkscape:pageopacity="0"
   inkscape:pageshadow="2"
   inkscape:window-width="2619"
   inkscape:window-height="1292"
   id="namedview17"
   showgrid="true"
   inkscape:zoom="19.081571"
   inkscape:cx="24.16672"
   inkscape:cy="30.337887"
   inkscape:window-x="195"
   inkscape:window-y="112"
   inkscape:window-maximized="0"
   inkscape:current-layer="Layer_1"
   showguides="true"
   inkscape:guide-bbox="true"><inkscape:grid
     type="xygrid"
     id="grid826" /><sodipodi:guide
     position="-9,32"
     orientation="0,1"
     id="guide830"
     inkscape:locked="false" /><sodipodi:guide
     position="32,51"
     orientation="1,0"
     id="guide818"
     inkscape:locked="false" /></sodipodi:namedview>
<rect
   y="0"
   x="0"
   height="64"
   width="64"
   style="opacity:0;fill:#ffffff"
   id="icon-m-transfer_1_" /><path
   style="opacity:1;fill:#ffffff"
   d="M 20.011719 9.9941406 C 19.263719 9.9941406 18.567516 10.422019 18.103516 11.166016 L 9.2207031 25.412109 C 8.7447032 26.174109 8.6762032 26.979047 9.0332031 27.623047 C 9.3902031 28.268047 10.111766 28.636719 11.009766 28.636719 L 19 28.636719 L 19 37.107422 C 19 37.638388 19.448 38.068359 20 38.068359 C 20.552 38.068359 21 37.638388 21 37.107422 L 21 28.636719 L 29.009766 28.636719 C 29.907766 28.636719 30.629281 28.269047 30.988281 27.623047 C 31.345281 26.980047 31.277734 26.172156 30.802734 25.410156 L 21.917969 11.166016 C 21.453969 10.422019 20.759719 9.9941406 20.011719 9.9941406 z M 20 11.994141 L 29.183594 26.625 L 10.835938 26.625 L 20 11.994141 z "
   id="path9" /><path
   style="opacity:0.6;fill:#ffffff"
   d="M 44 25.931641 C 43.448 25.931641 43 26.361612 43 26.892578 L 43 35.357422 L 34.990234 35.357422 C 34.092234 35.357422 33.370719 35.725094 33.011719 36.371094 C 32.654719 37.014094 32.722266 37.821984 33.197266 38.583984 L 42.082031 52.828125 C 42.546031 53.572125 43.240281 54 43.988281 54 C 44.736281 54 45.432484 53.572125 45.896484 52.828125 L 54.779297 38.582031 C 55.255297 37.820031 55.323797 37.015094 54.966797 36.371094 C 54.609797 35.726094 53.888234 35.357422 52.990234 35.357422 L 45 35.357422 L 45 26.892578 C 45 26.361612 44.552 25.931641 44 25.931641 z M 34.816406 37.369141 L 53.164062 37.369141 L 44 52 L 34.816406 37.369141 z "
   id="path837" />
<path
   style="opacity:1;fill:#ffffff"
   d="m 20,42.04069 c -0.552,0 -1,0.429973 -1,0.960939 v 10.036899 c 0,0.530966 0.448,0.960938 1,0.960938 0.552,0 1,-0.429972 1,-0.960938 V 43.001629 C 21,42.470663 20.552,42.04069 20,42.04069 Z"
   id="path816"
   inkscape:connector-curvature="0"
   sodipodi:nodetypes="sccsccs" /><path
   sodipodi:nodetypes="sccsccs"
   inkscape:connector-curvature="0"
   id="path896"
   d="m 44,21.95931 c 0.552,0 1,-0.429973 1,-0.960939 V 10.961472 c 0,-0.530966 -0.448,-0.960938 -1,-0.960938 -0.552,0 -1,0.429972 -1,0.960938 v 10.036899 c 0,0.530966 0.448,0.960939 1,0.960939 z"
   style="opacity:0.6;fill:#ffffff" /></svg>

<svg xmlns="http://www.w3.org/2000/svg" width="64" height="64" style="enable-background:new 0 0 64 64" xml:space="preserve"><path style="opacity:1;fill:#fff" d="M20.012 9.994c-.748 0-1.444.428-1.908 1.172L9.22 25.412c-.476.762-.545 1.567-.188 2.211.357.645 1.079 1.014 1.977 1.014H19v8.47c0 .531.448.961 1 .961s1-.43 1-.96v-8.471h8.01c.898 0 1.62-.368 1.978-1.014.357-.643.29-1.45-.185-2.213l-8.885-14.244c-.464-.744-1.158-1.172-1.906-1.172zm-.012 2 9.184 14.631H10.836L20 11.995z"/><path style="opacity:.6;fill:#fff" d="M44 25.932c-.552 0-1 .43-1 .96v8.465h-8.01c-.898 0-1.62.368-1.978 1.014-.357.643-.29 1.451.185 2.213l8.885 14.244c.464.744 1.158 1.172 1.906 1.172s1.444-.428 1.908-1.172l8.883-14.246c.476-.762.545-1.567.188-2.21-.357-.646-1.079-1.015-1.977-1.015H45v-8.464c0-.531-.448-.961-1-.961zm-9.184 11.437h18.348L44 52l-9.184-14.63z"/><path style="opacity:1;fill:#fff" d="M20 42.04c-.552 0-1 .43-1 .962v10.037c0 .53.448.96 1 .96s1-.43 1-.96V43.002c0-.531-.448-.961-1-.961Z"/><path d="M44 21.96c.552 0 1-.43 1-.962V10.961c0-.53-.448-.96-1-.96s-1 .43-1 .96v10.037c0 .531.448.961 1 .961z" style="opacity:.6;fill:#fff"/></svg>
